svg/color/btcmt.svg

<?xml version="1.0" encoding="UTF-8" ?>
<!DOCTYPE svg PUBLIC "-//W3C//DTD SVG 1.1//EN" "http://www.w3.org/Graphics/SVG/1.1/DTD/svg11.dtd">
<svg width="250pt" height="250pt" viewBox="0 0 250 250" version="1.1" xmlns="http://www.w3.org/2000/svg">
<g id="#1a2121ff">
<path fill="#1a2121" opacity="1.00" d=" M 0.00 0.00 L 250.00 0.00 L 250.00 250.00 L 0.00 250.00 L 0.00 0.00 M 60.19 81.06 C 59.83 81.52 59.11 82.44 58.75 82.89 C 58.69 90.33 58.75 97.77 58.72 105.20 C 59.27 107.67 61.06 109.62 63.31 110.68 C 80.34 120.62 97.33 130.61 114.35 140.55 C 120.76 144.34 129.16 144.39 135.58 140.61 C 152.61 130.63 169.64 120.64 186.69 110.67 C 189.26 109.50 191.42 106.99 191.28 104.05 C 191.24 97.01 191.34 89.98 191.24 82.95 C 190.52 81.23 188.87 79.98 186.95 80.64 C 168.84 91.25 150.73 101.87 132.61 112.47 C 128.25 115.12 122.49 115.26 118.00 112.84 C 100.19 102.39 82.36 91.97 64.55 81.52 C 63.40 80.59 61.38 79.92 60.19 81.06 M 58.72 122.94 C 58.73 129.63 58.71 136.33 58.73 143.02 C 58.75 145.38 60.32 147.54 62.38 148.62 C 73.96 155.41 85.49 162.28 97.08 169.04 C 99.06 170.42 102.09 168.44 101.80 166.08 C 101.81 159.40 101.87 152.72 101.77 146.05 C 101.81 143.78 100.32 141.85 98.44 140.72 C 86.22 133.80 74.37 126.20 62.01 119.57 C 60.38 120.03 58.74 121.05 58.72 122.94 M 151.65 140.69 C 149.38 141.88 148.01 144.38 148.18 146.93 C 148.19 153.32 148.15 159.72 148.20 166.11 C 147.93 168.48 150.91 170.43 152.91 169.03 C 164.52 162.29 176.05 155.41 187.63 148.60 C 189.44 147.68 190.60 145.97 191.22 144.08 C 191.36 137.00 191.22 129.91 191.29 122.82 C 191.09 121.01 189.63 120.02 188.01 119.57 C 175.65 126.16 163.83 133.76 151.65 140.69 Z" />
</g>
<g id="#6ddac0ff">
<path fill="#6ddac0" opacity="1.00" d=" M 60.19 81.06 C 61.38 79.92 63.40 80.59 64.55 81.52 C 82.36 91.97 100.19 102.39 118.00 112.84 C 122.49 115.26 128.25 115.12 132.61 112.47 C 150.73 101.87 168.84 91.25 186.95 80.64 C 188.87 79.98 190.52 81.23 191.24 82.95 C 191.34 89.98 191.24 97.01 191.28 104.05 C 191.42 106.99 189.26 109.50 186.69 110.67 C 169.64 120.64 152.61 130.63 135.58 140.61 C 129.16 144.39 120.76 144.34 114.35 140.55 C 97.33 130.61 80.34 120.62 63.31 110.68 C 61.06 109.62 59.27 107.67 58.72 105.20 C 58.75 97.77 58.69 90.33 58.75 82.89 C 59.11 82.44 59.83 81.52 60.19 81.06 Z" />
<path fill="#6ddac0" opacity="1.00" d=" M 58.72 122.94 C 58.74 121.05 60.38 120.03 62.01 119.57 C 74.37 126.20 86.22 133.80 98.44 140.72 C 100.32 141.85 101.81 143.78 101.77 146.05 C 101.87 152.72 101.81 159.40 101.80 166.08 C 102.09 168.44 99.06 170.42 97.08 169.04 C 85.49 162.28 73.96 155.41 62.38 148.62 C 60.32 147.54 58.75 145.38 58.73 143.02 C 58.71 136.33 58.73 129.63 58.72 122.94 Z" />
<path fill="#6ddac0" opacity="1.00" d=" M 151.65 140.69 C 163.83 133.76 175.65 126.16 188.01 119.57 C 189.63 120.02 191.09 121.01 191.29 122.82 C 191.22 129.91 191.36 137.00 191.22 144.08 C 190.60 145.97 189.44 147.68 187.63 148.60 C 176.05 155.41 164.52 162.29 152.91 169.03 C 150.91 170.43 147.93 168.48 148.20 166.11 C 148.15 159.72 148.19 153.32 148.18 146.93 C 148.01 144.38 149.38 141.88 151.65 140.69 Z" />
</g>
</svg>

<?xml version="1.0" encoding="utf-8"?>
<!-- Generator: Adobe Illustrator 26.0.3, SVG Export Plug-In . SVG Version: 6.00 Build 0)  -->
<svg version="1.1" id="Layer_1" xmlns="http://www.w3.org/2000/svg" xmlns:xlink="http://www.w3.org/1999/xlink" x="0px" y="0px"
	 viewBox="0 0 250 250" style="enable-background:new 0 0 250 250;" xml:space="preserve">
<style type="text/css">
	.st0{fill:#1A2121;}
	.st1{fill:#6DDAC0;}
</style>
<circle class="st0" cx="125" cy="125.5" r="125"/>
<g id="_x23_6ddac0ff">
	<path class="st1" d="M60.2,81.1c1.2-1.1,3.2-0.5,4.4,0.5c17.8,10.5,35.6,20.9,53.4,31.3c4.5,2.4,10.2,2.3,14.6-0.4
		c18.1-10.6,36.2-21.2,54.3-31.8c1.9-0.7,3.6,0.6,4.3,2.3c0.1,7,0,14.1,0,21.1c0.1,2.9-2,5.4-4.6,6.6c-17.1,10-34.1,20-51.1,29.9
		c-6.4,3.8-14.8,3.7-21.2-0.1c-17-9.9-34-19.9-51-29.9c-2.2-1.1-4-3-4.6-5.5c0-7.4,0-14.9,0-22.3C59.1,82.4,59.8,81.5,60.2,81.1z"/>
	<path class="st1" d="M58.7,122.9c0-1.9,1.7-2.9,3.3-3.4c12.4,6.6,24.2,14.2,36.4,21.2c1.9,1.1,3.4,3.1,3.3,5.3c0.1,6.7,0,13.3,0,20
		c0.3,2.4-2.7,4.3-4.7,3c-11.6-6.8-23.1-13.6-34.7-20.4c-2.1-1.1-3.6-3.2-3.7-5.6C58.7,136.3,58.7,129.6,58.7,122.9z"/>
	<path class="st1" d="M151.6,140.7c12.2-6.9,24-14.5,36.4-21.1c1.6,0.4,3.1,1.4,3.3,3.2c-0.1,7.1,0.1,14.2-0.1,21.3
		c-0.6,1.9-1.8,3.6-3.6,4.5c-11.6,6.8-23.1,13.7-34.7,20.4c-2,1.4-5-0.6-4.7-2.9c-0.1-6.4,0-12.8,0-19.2
		C148,144.4,149.4,141.9,151.6,140.7z"/>
</g>
</svg>
